X:1
T:Gaelic Society of Perth, The
T:Gaelic Society of Perth, The
T:John Stewart Esqr. of Garth's Favorite Strathspey
T:Robert Petrie
C:Robert Petrie
L:1/8
M:4/4
K:F
V:1 treble 
V:1
 F>A d/c/B/A/ c2 A>c | f>c d/c/B/A/ BGGA | FAcA c2 Ac | (3def (3efg aff z :| g | afef dfcA | %6
 Bg d/c/B/A/ BGGf | afef dfcf | df e/f/g/e/ fFFg | afge fdcB | Af d/c/B/A/ BGGA | Fc c2 d2 Bd | %12
 cegb aff z || %13

